svg/24/camera-frame-preset-set--filled.svg

<svg width="24" height="24" viewBox="0 0 24 24" fill="currentColor" xmlns="http://www.w3.org/2000/svg"><path d="M2.75 2C2.33579 2 2 2.33579 2 2.75V5.25C2 5.66421 2.33579 6 2.75 6C3.16421 6 3.5 5.66421 3.5 5.25V3.5H5.25C5.66421 3.5 6 3.16421 6 2.75C6 2.33579 5.66421 2 5.25 2H2.75Z"/><path d="M2 18.75V21.25C2 21.4489 2.07902 21.6397 2.21967 21.7803C2.36032 21.921 2.55109 22 2.75 22H5.25C5.66421 22 6 21.6642 6 21.25C6 20.8358 5.66421 20.5 5.25 20.5H3.5L3.5 18.75C3.5 18.3358 3.16421 18 2.75 18C2.33579 18 2 18.3358 2 18.75Z"/><path d="M22 5.25V2.75C22 2.33579 21.6642 2 21.25 2H18.75C18.3358 2 18 2.33579 18 2.75C18 3.16421 18.3358 3.5 18.75 3.5L20.5 3.5V5.25C20.5 5.66421 20.8358 6 21.25 6C21.6642 6 22 5.66421 22 5.25Z"/><path d="M15 6.5H17C17.2761 6.5 17.5 6.72386 17.5 7V11C18.0163 11 18.5185 11.0602 19 11.1739V7C19 5.89543 18.1046 5 17 5H7C5.89543 5 5 5.89543 5 7V17C5 18.1046 5.89543 19 7 19H11.1739C11.0602 18.5185 11 18.0163 11 17.5H7C6.72386 17.5 6.5 17.2761 6.5 17V15H11.4982C12.1568 13.4206 13.4206 12.1568 15 11.4982V6.5Z"/><path fill-rule="evenodd" clip-rule="evenodd" d="M17.5 23C20.5376 23 23 20.5376 23 17.5C23 14.4624 20.5376 12 17.5 12C14.4624 12 12 14.4624 12 17.5C12 20.5376 14.4624 23 17.5 23ZM20.0001 15.4999C20.0001 15.2238 19.7762 14.9999 19.5001 14.9999H16.6716C16.3955 14.9999 16.1716 15.2238 16.1716 15.4999C16.1716 15.7761 16.3955 15.9999 16.6716 15.9999H18.293L15.1464 19.1465C14.9511 19.3418 14.9511 19.6584 15.1464 19.8536C15.3416 20.0489 15.6582 20.0489 15.8535 19.8536L19.0001 16.707V18.3284C19.0001 18.6045 19.2239 18.8284 19.5001 18.8284C19.7762 18.8284 20.0001 18.6045 20.0001 18.3284V15.4999Z"/></svg>

<svg xmlns="http://www.w3.org/2000/svg" width="24" height="24" fill="currentColor" viewBox="0 0 24 24">
  <path d="M2.75 2a.75.75 0 0 0-.75.75v2.5a.75.75 0 0 0 1.5 0V3.5h1.75a.75.75 0 0 0 0-1.5h-2.5ZM2 18.75v2.5a.75.75 0 0 0 .75.75h2.5a.75.75 0 0 0 0-1.5H3.5v-1.75a.75.75 0 0 0-1.5 0Zm20-13.5v-2.5a.75.75 0 0 0-.75-.75h-2.5a.75.75 0 0 0 0 1.5h1.75v1.75a.75.75 0 0 0 1.5 0ZM15 6.5h2a.5.5 0 0 1 .5.5v4c.516 0 1.018.06 1.5.174V7a2 2 0 0 0-2-2H7a2 2 0 0 0-2 2v10a2 2 0 0 0 2 2h4.174A6.52 6.52 0 0 1 11 17.5H7a.5.5 0 0 1-.5-.5v-2h4.998A6.522 6.522 0 0 1 15 11.498V6.5Z"/>
  <path fill-rule="evenodd" d="M17.5 23a5.5 5.5 0 1 0 0-11 5.5 5.5 0 0 0 0 11Zm2.5-7.5a.5.5 0 0 0-.5-.5h-2.828a.5.5 0 0 0 0 1h1.621l-3.147 3.146a.5.5 0 1 0 .707.708L19 16.707v1.621a.5.5 0 1 0 1 0V15.5Z" clip-rule="evenodd"/>
</svg>
